!!!COM: Scriabin, Alexander
!!!OTL@@FR: Prélude en fa mineur
!!!OTL@@EN: Prelude in F Minor
!!!OPR@@FR: 7 Préludes
!!!OPR@@EN: 7 Preludes
!!!OPS: 17
!!!ONM: 5
!!!ODT: 1895
!!!AGN: Prelude
**kern	**kern	**dynam
*staff2	*staff1	*staff1/2
*Ipiano	*Ipiano	*
*clefF4	*clefG2	*
*k[b-e-a-d-]	*k[b-e-a-d-]	*
*f:	*f:	*
*M9/8	*M9/8	*
=1	=1	=1
*	*8va	*
16%3CL 16%3G 16%3c	16ccccLL	f
.	16eeen	.
.	16ccc	.
16%3CCCJ 16%3CC	16ccc	.
.	16ggg	.
.	16ggJJ	.
*	*X8va	*
16%3r	16cccLL	.
.	16een	.
.	16cc	.
[16%3C [16%3c	16cc	.
.	16gg	.
.	16gJJ	.
8CL] 8c]	16ccLL	.
.	16en	.
8BBn 8Bn	16c	.
.	16c	.
8BB-XJ 8B-X	16g	.
.	16GJJ	.
=2	=2	=2
*	*8va	*
16%3AA-L 16%3D- 16%3A-	16ccccLL	.
.	16fff	.
.	16ccc	.
16%3CCCJ 16%3CC	16ddd-	.
.	16aaa-	.
.	16aa-JJ	.
*	*X8va	*
4.r	16cccLL	.
.	16ff	.
.	16cc	.
.	16dd-	.
.	16aa-	.
.	16a-JJ	.
4.r	16ccLL	.
.	16f	.
.	16c	.
.	16d-	.
.	16a-	.
.	16A-JJ	.
!!LO:LB:g=original
=3	=3	=3
*	*8va	*
16%3FL 16%3c 16%3f	16ffffLL	.
.	16aaan	.
.	16fff	.
16%3CCCJ 16%3CC	16fff	.
.	16cccc	.
.	16cccJJ	.
*	*X8va	*
16%3r	16fffLL	.
.	16aan	.
.	16ff	.
[16%3F [16%3f	16ff	.
.	16ccc	.
.	16ccJJ	.
8FL] 8f]	16ffLL	.
.	16an	.
8En 8en	16f	.
.	16f	.
8E-XJ 8e-X	16cc	.
.	16cJJ	.
=4	=4	=4
*	*8va	*
16%3D-L 16%3G-X 16%3d-	16ffffLL	.
.	16bbb-	.
.	16fff	.
16%3CCCJ 16%3CC	16ggg-X	.
.	16dddd-	.
.	16ddd-JJ	.
*	*X8va	*
4.r	16fffLL	.
.	16bb-	.
.	16ff	.
.	16gg-X	.
.	16ddd-	.
.	16dd-JJ	.
4.r	16ffLL	.
.	16b-	.
.	16f	.
.	16g-X	.
.	16dd-	.
.	16d-JJ	.
!!LO:LB:g=original
=5	=5	=5
8FL 8c 8f	16ffLL	p
.	16an	.
8FF 8F	16f	.
.	16f	.
8CCJ 8C	16cc	.
.	16cJJ	.
8FL 8d- 8f	16ffLL	.
.	16b-	.
8FF 8F	16f	.
.	16g-X	.
8BBB-J 8BB-	16dd-	.
.	16d-JJ	.
8FL 8d- 8f	16ffLL	.
.	16dd-	.
8FF 8F	16f	<
.	16gn	.
8BBB-J 8BB-	16dd-	.
.	16d-JJ	.
=6	=6	=6
8FL 8d- 8f	16ffLL	.
.	16dd-	.
8FF 8F	16f	.
.	16a-	.
8AAA-J 8AA-	16dd-	.
.	16d-JJ	.
8FL 8d- 8f	16aa-LL	.
.	16dd-	.
8FF 8F	16a-	.
.	16a-	.
8AAA-J 8AA-	16dd-	.
.	16d-JJ	.
8FL 8d- 8f	16ffLL	.
.	16dd-	.
8FF 8F	16f	.
.	16a-	.
8AAA-J 8AA-	16dd-	.
.	16d-JJ	.
!!LO:LB:g=original
=7	=7	=7
8GGGL 8GG	16bb-LL	f
.	16ff	.
8DD- 8D-	16b-	.
.	16b-	.
8AA-J 8A-	16ff	.
.	16fJJ	.
4.GG 4.G	16ffLL	<
.	16b-	.
.	16f	.
.	16f	.
.	16b-	.
.	16B-JJ	.
4.F 4.B- 4.f	16b-LL	.
.	16f	.
.	16b-	.
.	16b-	.
.	16ff	.
.	16bb-JJ	.
=8	=8	=8
8GGGL 8GG	16bbnLL	.
.	16ff	.
8DD- 8D-	16bn	.
.	16b	.
8AA-J 8A-	16ff	.
.	16fJJ	.
8GGL 8G	16ffLL	.
.	16b	.
8D- 8d-	16f	.
.	16f	.
8GJ 8g	16b	.
.	16BnJJ	.
8r	16fLL	.
.	16b	.
8D-L 8d-	16ff	.
.	16bb	.
*	*8va	*
8GGJ 8G	16fff	.
.	16bbbnJJ	.
!!LO:LB:g=original
=9	=9	=9
8CL 8G 8c	16ccccLL	ff
.	16eeen	.
8GG 8G	16ccc	.
.	16ccc	.
8CCJ 8C	16ggg	.
.	16ggJJ	.
*	*X8va	*
8GGGL 8GG	16cccLL	.
.	16een	.
8CCC 8CC	16cc	.
.	16cc	.
[8CJ [8c	16gg	.
.	16gJJ	.
8CL] 8c]	16ccLL	.
.	16en	.
8BBn 8Bn	16c	.
.	16c	.
8BB-XJ 8B-X	16g	.
.	16GJJ	.
=10	=10	=10
*^	*	*
*	*	*8va	*
4.D-	8AA-L 8A-	16ccccLL	.
.	.	16fff	.
.	8GG 8G	16ccc	.
.	.	16ddd-	.
.	8FFJ 8F	16aaa-	.
.	.	16aa-JJ	.
*	*	*X8va	*
*v	*v	*	*
8AAA-L 8AA-	16cccLL	.
.	16ff	.
8CCCJ 8CC	16cc	.
.	16dd-	.
8r	16aa-	.
.	16a-JJ	.
4.r	16ccLL	.
.	16f	.
.	16c	.
.	16d-	.
.	16a-	.
.	16A-JJ	.
!!LO:LB:g=original
=11	=11	=11
*	*8va	*
8FL 8c 8f	16ffffLL	.
.	16aaan	.
8C 8c	16fff	.
.	16fff	.
8FFJ 8F	16cccc	.
.	16cccJJ	.
*	*X8va	*
8CCL 8C	16fffLL	.
.	16aan	.
8CCC 8CC	16ff	.
.	16ff	.
[8FJ [8f	16ccc	.
.	16ccJJ	.
8FL] 8f]	16ffLL	.
.	16an	.
8En 8en	16f	.
.	16f	.
8E-XJ 8e-X	16cc	.
.	16cJJ	.
=12	=12	=12
*^	*	*
*	*	*8va	*
8D-L 8d-	4.G-X	16ffffLL	.
.	.	16bbb-	.
8C 8c	.	16fff	.
.	.	16ggg-X	.
8BB-J 8B-	.	16dddd-	.
.	.	16ddd-JJ	.
*	*	*X8va	*
*v	*v	*	*
8DD-L 8D-	16fffLL	.
.	16bb-	.
8CCCJ 8CC	16ff	.
.	16gg-X	.
8r	16ddd-	.
.	16dd-JJ	.
4.r	16ffLL	.
.	16b-	.
.	16f	.
.	16g-X	.
.	16dd-	.
.	16d-JJ	.
!!LO:LB:g=original
=13	=13	=13
8FL 8c 8f	16ffLL	p
.	16an	.
8FF 8F	16f	.
.	16f	.
8CCJ 8C	16cc	.
.	16cJJ	.
8FL 8d- 8f	16ffLL	.
.	16b-	.
8FF 8F	16f	.
.	16g-X	.
8BBB-J 8BB-	16dd-	.
.	16d-JJ	.
8FL 8d- 8f	16ffLL	.
.	16dd-	.
8FF 8F	16f	<
.	16gn	.
8BBB-J 8BB-	16dd-	.
.	16d-JJ	.
=14	=14	=14
8FL 8d- 8f	16ffLL	.
.	16dd-	.
8FF 8F	16f	.
.	16a-	.
8AAA-J 8AA-	16dd-	.
.	16d-JJ	.
8FL 8d- 8f	16aa-LL	.
.	16dd-	.
8FF 8F	16a-	.
.	16a-	.
8AAA-J 8AA-	16dd-	.
.	16d-JJ	.
8FL 8d- 8f	16ffLL	.
.	16dd-	.
8FF 8F	16f	.
.	16a-	.
8AAA-J 8AA-	16dd-	.
.	16d-JJ	.
!!LO:LB:g=original
=15	=15	=15
8AAA-L 8AA-	16aa-LL	f
.	16dd-	.
8EE- 8E-	16a-	.
.	16g-X	.
8BB-J 8B-	16dd-	.
.	16d-JJ	.
2.AA- 2.A-	16ffLL	.
.	16cc	.
.	16f	.
.	16f	.
.	16cc	.
.	16cJJ	.
.	16eenLL	.
.	16cc	.
.	16en	.
.	16e	.
.	16cc	.
.	16cJJ	.
=16	=16	=16
4AA- 4A-	16ffLL	.
.	16dd-	.
.	16f	.
.	16f	.
8BB- 8B-	16dd-	.
.	16d-JJ	.
4AA- 4A-	16ffLL	.
.	16dd-	.
.	16f	.
.	16a-	.
8GG-X 8G-X	16dd-	.
.	16d-JJ	.
8FFL 8F	16aa-LL	.
.	16dd-	.
8EE- 8E-	16a-	.
.	16a-	.
8DD-J 8D-	16ff	.
.	16fJJ	.
!!LO:LB:g=original
=17	=17	=17
8DD-L 8D-	16bbnLL	.
.	16ff	.
8AA- 8A-	16bn	.
.	16b	.
8E-J 8e-	16ff	.
.	16fJJ	.
2.D- 2.d-	16bb-XLL	.
.	16ff	.
.	16b-X	<
.	16b-	.
.	16ff	.
.	16fJJ	.
.	16bbnLL	.
.	16ff	.
.	16bn	.
.	16b	.
.	16ff	.
.	16fJJ	.
=18	=18	=18
4C 4c	16cccLL	.
.	16ff	.
.	16cc	.
.	16cc	.
8CC 8C	16ff	.
.	16fJJ	.
8GGL 8G	16ffLL	.
.	16cc	.
8AA- 8A-	16f	.
.	16f	.
8E-J 8e-	16cc	.
.	16cJJ	.
4D- 4d-	16ffLL	>
.	16bn	)
.	16f	)
.	16a-	)
8C 8c	16cc	)
.	16fJJ	]
!!LO:LB:g=original
=19	=19	=19
8CCL 8C	16ddd-LL	<
.	16ff	.
8GG 8G	16dd-	.
.	16dd-	.
8FJ 8f	16ff	.
.	16fJJ	.
*clefG2	*	*
2.d- 2.dd-	16cccLL	.
.	16ff	.
.	16cc	.
.	16cc	.
.	16ff	.
.	16fJJ	.
.	16bb-LL	.
.	16ff	.
.	16b-	.
.	16b-	.
.	16ff	.
.	16fJJ	.
*clefF4	*	*
=20	=20	=20
8CCL 8C	16cccLL	.
.	16een	.
8BB- 8B-	16cc	.
.	16cc	.
8EnJ 8en	16ee	.
.	16enJJ	.
*clefG2	*	*
4.c 4.cc	16eeenLL	.
.	16ccc	.
.	16ee	.
.	16ee	.
.	16bb-	.
.	16b-JJ	.
4.G-X 4.g-X	16eeLL	sf
.	16bb-	.
.	16eee	.
*	*8va	*
.	16eee	.
.	16bbb-	.
.	16eeeenJJ	.
*clefF4	*	*
!!LO:LB:g=original
=21	=21	=21
8FL 8c 8f	16fffLL 16ffff	ff
.	16aaan	.
8C 8c	16fff	.
.	16fff	.
8FFJ 8F	16cccc	.
.	16cccJJ	.
*	*X8va	*
8CCL 8C	16fffLL	.
.	16aan	.
8FFF 8FF	16ff	.
.	16ff	.
[8FJ [8f	16ccc	.
.	16ccJJ	.
8FL] 8f]	16ffLL	.
.	16an	.
8En 8en	16f	.
.	16f	.
8E-XJ 8e-X	16cc	.
.	16cJJ	.
=22	=22	=22
*^	*	*
*	*	*8va	*
8D-L 8d-	4.G-X	16ffffLL	.
.	.	16bbb-	.
8C 8c	.	16fff	.
.	.	16ggg-X	.
8BB-J 8B-	.	16dddd-	.
.	.	16ddd-JJ	.
*	*	*X8va	*
*v	*v	*	*
8DD-L 8D-	16fffLL	.
.	16bb-	.
8FFFJ 8FF	16ff	.
.	16gg-X	.
8r	16ddd-	.
.	16dd-JJ	.
4.r	16eenLL	.
.	16g-X	.
.	16b-	.
.	16ee	.
.	16bb-	.
.	16eeenJJ	.
!!LO:LB:g=original
=23	=23	=23
8FFL 8C 8F	16fffLL	.
.	16aan	.
8CC 8C	16ff	.
.	16ff	.
8FFFJ 8FF	16ccc	.
.	16ccJJ	.
4FFF 4FF	16ffLL	.
.	16an	.
.	16f	.
.	16f	.
[8FF [8F	16cc	.
.	16cJJ	.
8FFL] 8F]	16fLL	.
.	16An	.
8EEn 8En	16F	.
.	16F	.
8EE-XJ 8E-X	16c	.
.	16CJJ	.
=24	=24	=24
*^	*	*
4.GG-X	8DD-L 8D-	16fffLL	.
.	.	16bb-	.
.	8CC 8C	16ff	.
.	.	16gg-X	.
.	8BBB-J 8BB-	16ddd-	.
.	.	16dd-JJ	.
*v	*v	*	*
2.FFF 2.FF	16ffLL	.
.	16b-	.
.	16f	.
.	16g-X	.
.	16dd-	.
.	16d-JJ	.
.	16enLL	.
.	16B-	.
.	16En	.
.	16G-X	.
.	16d-	.
.	16D-JJ	.
!!LO:LB:g=original
=25	=25	=25
*^	*	*
4.GG-X	8DD-L 8D-	16ffLL	.
.	.	16b-	.
.	8CC 8C	16f	.
.	.	16g-X	.
.	8BBB-J 8BB-	16dd-	.
.	.	16d-JJ	.
*v	*v	*	*
2.FFF 2.FF	16fLL	.
.	16B-	.
.	16F	.
.	16G-X	.
.	16d-	.
.	16D-JJ	.
.	16enLL	.
.	16B-	.
.	16En	.
.	16G-	.
.	16d-	.
.	16D-JJ	.
=26	=26	=26
*^	*	*
4.GG-X	8DD-L 8D-	16fLL	.
.	.	16B-	.
.	8CC 8C	16F	.
.	.	16G-X	.
.	8BBB-J 8BB-	16d-	.
.	.	16D-JJ	.
*v	*v	*	*
2.FFF 2.FF	16fLL	.
.	16B-	.
.	16F	.
.	16G-	.
.	16d-	.
.	16D-JJ	.
.	16enLL	.
.	16B-	.
.	16En	.
.	16G-	.
.	16d-	.
.	16D-JJ	.
*	*clefF4	*
!!LO:LB:g=original
=27	=27	=27
[2.BBBB- [2.BBB-	16fLL	.
.	16B-	.
.	16F	<
.	16B-	.
.	16d-	.
.	16D-JJ	.
.	16enLL	.
.	16B-	.
.	16En	.
.	16B-	.
.	16d-	.
.	16D-JJ	.
4.BBBB-] 4.BBB-]	16fLL	.
.	16B-	.
.	16F	.
.	16B-	.
.	16d-	.
.	16D-JJ	.
=28	=28	=28
8qFF 8qF	.	.
[2.FF [2.F	16g-XLL	.
.	16d-	.
.	16G-X	.
.	16B-	.
.	16d-	.
.	16D-JJ	.
.	16gnLL	.
.	16d-	.
.	16Gn	.
.	16B-	.
.	16d-	.
.	16D-JJ	.
4.FF] 4.F]	16g#XLL	.
.	16d-	.
.	16G#X	.
.	16B-	.
.	16d-	.
.	16D-JJ	.
!!LO:LB:g=original
=29	=29	=29
[2.FFF [2.FF	16anLL	fff
.	16c	.
.	16An	.
.	16F	.
.	16c	.
.	16CJJ	.
.	16aLL	.
.	16c	.
.	16A	.
.	16F	.
.	16c	.
.	16CJJ	.
4.FFF_ 4.FF_	16aLL	.
.	16c	.
.	16A	.
.	16F	.
.	16c	.
.	16CJJ	.
=30	=30	=30
.	8qC	.
2.FFF_ 2.FF_	[2.C [2.An [2.f	.
4.FFF] 4.FF]	4.C] 4.A] 4.f]	.
==	==	==
*-	*-	*-
!!!system-decoration: {(*)}
!!!filter: flipper -a
!!!ENC: Bryan Jacob Bell
!!!END: November 2021 to April 2022
!!!PED: Konstantin Igumnov and Yakov Milstein
!!!PTL: A.N. Skryabin: Polnoe sobranie sochinenii dlia fortepiano (Muzgiz)
!!!URL-pdf: https://github.com/bel28kent/Mysterium/blob/main/reference_editions/op17.pdf
